packages/devextreme-scss/images/icons/material/gift.svg

<svg width="24" height="24" viewBox="0 0 24 24" fill="none" xmlns="http://www.w3.org/2000/svg">
<title>gift</title>
<path d="M22 12V20C22 20.5304 21.7893 21.0391 21.4142 21.4142C21.0391 21.7893 20.5304 22 20 22H4C3.46957 22 2.96086 21.7893 2.58579 21.4142C2.21071 21.0391 2 20.5304 2 20V12C1.73478 12 1.48043 11.8946 1.29289 11.7071C1.10536 11.5196 1 11.2652 1 11V8C1 7.46957 1.21071 6.96086 1.58579 6.58579C1.96086 6.21071 2.46957 6 3 6H6.17C6.06 5.69 6 5.35 6 5C6 4.20435 6.31607 3.44129 6.87868 2.87868C7.44129 2.31607 8.20435 2 9 2C10 2 10.88 2.5 11.43 3.24V3.23L12 4L12.57 3.23V3.24C13.12 2.5 14 2 15 2C15.7956 2 16.5587 2.31607 17.1213 2.87868C17.6839 3.44129 18 4.20435 18 5C18 5.35 17.94 5.69 17.83 6H21C21.5304 6 22.0391 6.21071 22.4142 6.58579C22.7893 6.96086 23 7.46957 23 8V11C23 11.2652 22.8946 11.5196 22.7071 11.7071C22.5196 11.8946 22.2652 12 22 12ZM4 20H11V12H4V20ZM20 20V12H13V20H20ZM9 4C8.73478 4 8.48043 4.10536 8.29289 4.29289C8.10536 4.48043 8 4.73478 8 5C8 5.26522 8.10536 5.51957 8.29289 5.70711C8.48043 5.89464 8.73478 6 9 6C9.26522 6 9.51957 5.89464 9.70711 5.70711C9.89464 5.51957 10 5.26522 10 5C10 4.73478 9.89464 4.48043 9.70711 4.29289C9.51957 4.10536 9.26522 4 9 4ZM15 4C14.7348 4 14.4804 4.10536 14.2929 4.29289C14.1054 4.48043 14 4.73478 14 5C14 5.26522 14.1054 5.51957 14.2929 5.70711C14.4804 5.89464 14.7348 6 15 6C15.2652 6 15.5196 5.89464 15.7071 5.70711C15.8946 5.51957 16 5.26522 16 5C16 4.73478 15.8946 4.48043 15.7071 4.29289C15.5196 4.10536 15.2652 4 15 4ZM3 8V10H11V8H3ZM13 8V10H21V8H13Z" fill="black"/>
</svg>

<!-- Generated by IcoMoon.io -->
<svg version="1.1" xmlns="http://www.w3.org/2000/svg" width="24" height="24" viewBox="0 0 24 24">
<path d="M22 12v8c0 1.105-0.895 2-2 2v0h-16c-1.105 0-2-0.895-2-2v0-8c-0.552 0-1-0.448-1-1v0-3c0-1.105 0.895-2 2-2v0h3.17c-0.11-0.31-0.17-0.65-0.17-1 0-1.657 1.343-3 3-3v0c1 0 1.88 0.5 2.43 1.24v-0.010l0.57 0.77 0.57-0.77v0.010c0.55-0.74 1.43-1.24 2.43-1.24 1.657 0 3 1.343 3 3v0c0 0.35-0.060 0.69-0.17 1h3.17c1.105 0 2 0.895 2 2v0 3c0 0.552-0.448 1-1 1v0zM4 20h7v-8h-7v8zM20 20v-8h-7v8h7zM9 4c-0.552 0-1 0.448-1 1v0c0 0.552 0.448 1 1 1v0c0.552 0 1-0.448 1-1v0c0-0.552-0.448-1-1-1v0zM15 4c-0.552 0-1 0.448-1 1v0c0 0.552 0.448 1 1 1v0c0.552 0 1-0.448 1-1v0c0-0.552-0.448-1-1-1v0zM3 8v2h8v-2h-8zM13 8v2h8v-2h-8z"></path>
</svg>
